X:1
T:Meet Mother in the Skies
T:Meet Mother in the Skies
T:Arranged by William S. Nickle, 1899
T:Anonymous
T:Public Domain Courtesy of the Cyber Hymnal™
T:Public Domain Courtesy of the Cyber Hymnal™
C:Arranged by William S. Nickle, 1899
Z:Public Domain
Z:Courtesy of the Cyber Hymnal™
%%score ( 1 2 ) ( 3 4 )
L:1/8
Q:1/4=105
M:4/4
K:Ab
V:1 treble 
V:2 treble 
V:3 bass 
V:4 bass 
V:1
 [Ec]>[=D=B] [Ec]>[F=d] [Ec]2 [EA]2 | [DF]>[FA] [FA]>[DF] [CE]4 | %2
w: 1.~In a lone- ly church- yard,|ma- ny miles a- way,|
w: 2.~Now the old home, va- cant,|has no charms for you;|
w: 3.~Now in true re- pent- ance|to the Sav- ior flee,|
 [Ec]>[=D=B] [Ec]>[F=d] [Ec]2 [EA]2 | [=DB]>[DF] [DG]>[FA] (!fermata!B2 !fermata!e2) | %4
w: Lies your dear old mo- ther,|’neath the cold, cold clay; *|
w: One dear form is ab- sent,|mo- ther, kind and true; *|
w: He Who par- doned mo- ther,|mer- cy has for thee; *|
 [Ec]>[=D=B] [Ec]>[F=d] [Ec]2 [EA]2 | [DF]>[FA] [EG]>[DF] [CE]4 | [Ee]>[Ee] [Ed]>[Ec] [DB]2 [DF]2 | %7
w: Mem- ’ries oft re- turn- ing|of her tears and sighs,|If you love your mo- ther,|
w: Ev- er- more she dwells where|plea- sure ne- ver dies,|If you love your mo- ther,|
w: Now He waits to com- fort,|He will not de- spise,|If you love your mo- ther,|
 [DE]>[Ed] [Ec]>[DB] [CA]4 ||"^Refrain" [Ec]>[=D=B] [Ec]>[F=d] [Ec]2 [EA]2 | %9
w: meet her in the skies.||
w: meet her in the skies.|List- en to her plead- ing,|
w: meet her in the skies.||
 [DF]<[FA] [EG]>[DF] [CE]4 | [Ec]>[=D=B] [Ec]>[F=d] [Ec]2 [EA]2 | [=DB]>[DF] [DG]>[FA] (B2 e2) | %12
w: |||
w: “Wand- ’ring boy, come home,”|Lov- ing- ly, en- treat- ing,|do not long- er roam; *|
w: |||
 [Ec]>[=D=B] [Ec]>[F=d] [Ec]2 [EA]2 | [DF]>[FA] [EG]>[DF] [CE]4 | [Ee]>[Ee] [Ed]>[Ec] [DB]2 [DF]2 | %15
w: |||
w: Let your man- hood wak- en,|heav’n- ward lift your eyes;|If you love your mo- ther,|
w: |||
 [DG]<[Ed] [Ec]>[DB] [CA]4 |] %16
w: |
w: meet her in the skies.|
w: |
V:2
 x8 | x8 | x8 | x4 E4 | x8 | x8 | x8 | x8 || x8 | x8 | x8 | x4 E4 | x8 | x8 | x8 | x8 |] %16
V:3
 [A,,A,]>[A,,A,] [A,,A,]>[A,,A,] [A,,A,]2 [C,A,]2 | [D,A,]>[D,A,] [D,A,]>[D,A,] [A,,A,]4 | %2
 [A,,A,]>[A,,A,] [A,,A,]>[A,,A,] [A,,A,]2 [C,A,]2 | [B,,F,]>[B,,B,] [B,,B,]>[B,,B,] (G,2 B,2) | %4
 [A,,A,]>[A,,A,] [A,,A,]>[A,,A,] [A,,A,]2 [C,A,]2 | [D,A,]>[D,A,] [D,A,]>[D,A,] [A,,A,]4 | %6
 [A,C]>[A,C] [G,B,]>A, [D,F,]2 [D,A,]2 | [E,G,]>[E,B,] [E,A,]>[E,G,] [A,,A,]4 || %8
 [A,,A,]>[A,,A,] [A,,A,]>[A,,A,] [A,,A,]2 [C,A,]2 | [D,A,]<[D,A,] [D,A,]>[D,A,] [A,,A,]4 | %10
 [A,,A,]>[A,,A,] [A,,A,]>[A,,A,] [A,,A,]2 [C,A,]2 | [B,,F,]>[B,,B,] [B,,B,]>[B,,B,] (G,2 B,2) | %12
 [A,,A,]>[A,,A,] [A,,A,]>[A,,A,] [A,,A,]2 [C,A,]2 | [D,A,]>[D,A,] [D,A,]>[D,A,] [A,,A,]4 | %14
 [A,C]>[A,C] [G,B,]>A, [D,F,]2 [D,A,]2 | E,<[E,B,] [E,A,]>[E,G,] [A,,A,]4 |] %16
V:4
 x8 | x8 | x8 | x4 E,4 | x8 | x8 | x7/2 A,/ x4 | x8 || x8 | x8 | x8 | x4 E,4 | x8 | x8 | %14
 x7/2 A,/ x4 | E,/ x15/2 |] %16

